icons/svg/google-plus-box.svg

﻿<?xml version="1.0" encoding="utf-8"?>
<!DOCTYPE svg PUBLIC "-//W3C//DTD SVG 1.1//EN" "http://www.w3.org/Graphics/SVG/1.1/DTD/svg11.dtd">
<svg xmlns="http://www.w3.org/2000/svg" xmlns:xlink="http://www.w3.org/1999/xlink" version="1.1" baseProfile="full" width="24" height="24" viewBox="0 0 24.00 24.00" enable-background="new 0 0 24.00 24.00" xml:space="preserve">
	<path fill="#000000" fill-opacity="1" stroke-width="0.2" stroke-linejoin="round" d="M 19.9994,1.99807C 21.1034,1.99807 21.9994,2.89307 21.9994,3.99807L 21.9994,19.9981C 21.9994,21.1016 21.1034,21.9981 19.9994,21.9981L 3.99939,21.9981C 2.89539,21.9981 1.99939,21.1016 1.99939,19.9981L 2.0094,3.99807C 2.0094,2.89307 2.89539,1.99807 3.99939,1.99807L 19.9994,1.99807 Z M 20,12L 18,12L 18,10L 17,10L 17,12L 15,12L 15,13L 17,13L 17,15L 18,15L 18,13L 20,13L 20,12 Z M 9,11.2857L 9,13L 11.8571,13C 11.7143,13.7143 11,15.1429 9,15.1429C 7.28571,15.1429 5.92857,13.7143 5.92857,12C 5.92857,10.2857 7.28571,8.85714 9,8.85714C 10,8.85714 10.6429,9.28571 11,9.64286L 12.3571,8.35714C 11.5,7.5 10.3571,7 9,7C 6.21428,7 4,9.21429 4,12C 4,14.7857 6.21428,17 9,17C 11.8571,17 13.7857,15 13.7857,12.1429C 13.7857,11.7857 13.7857,11.5714 13.7143,11.2857L 9,11.2857 Z "/>
</svg>

<svg xmlns="http://www.w3.org/2000/svg" version="1.1" baseProfile="full" width="24" height="24" viewBox="0 0 24.00 24.00" xml:space="preserve"><path fill="#000" fill-opacity="1" stroke-width=".2" stroke-linejoin="round" d="M20 1.998c1.103 0 2 .895 2 2v16c0 1.104-.897 2-2 2H4c-1.105 0-2-.896-2-2l.01-16c0-1.105.885-2 1.99-2h16zM20 12h-2v-2h-1v2h-2v1h2v2h1v-2h2v-1zm-11-.714V13h2.857c-.143.714-.857 2.143-2.857 2.143-1.714 0-3.07-1.43-3.07-3.143 0-1.714 1.356-3.143 3.07-3.143 1 0 1.643.43 2 .786l1.357-1.286C11.5 7.5 10.357 7 9 7c-2.786 0-5 2.214-5 5s2.214 5 5 5c2.857 0 4.786-2 4.786-4.857 0-.357 0-.572-.072-.857H9z"/></svg>
